!!!!SEGMENT: pl-stab--11a--005_rodowski-aleksander--litania-de-b-m-v-agnus-dei.krn
!!!cenid: 18xx:3402
!!!COM: Rodowski, Aleksander
!!!COM-rismID: pe30009627
!!!CDT: <1790->1810
!!!CNT: Polish
!!!OPR: Litania de B.M.V
!!!OTL: Agnus Dei
!!!OMV: 005
!!!PDT: 1801
!!!AGN:
!!!SMS-siglum: PL-STAb
!!!SMS-shelfmark: 11a
!!!SMS-shelfwork: 001-005 M
!!!SMS-variant: Baſso PL-STAb 11a s:18-20 ; Canto PL-STAb 11a s:3-5
!!!SMS-altvar: Basſo PL-STAb 11a:21-23 ; Canto PL-STAb 11a:7-11 ; Canto PL-STAb 11a:6-7
!!!NIFC-rismSourceID: 301050677
!!!NIFC-rismChildID: 301050677
!!!NIFC-islandoraID: pl-stab:2413
!!!URL-pdf-islandora: https://repozytorium.nifc.pl/islandora/object/pl-stab%3A2413/datastream/PDF/view
!!!URL-scan: https://polish.musicsources.pl/pl/lokalizacje/galeria/rekopisy/4403 @EN{Scan on Polish Music Sources Website} @PL{Skany w portalu Dziedzictwo Muzyki Polskiej w otwartym dostępie}
!!!IIIF:
!!!ONB-nifc: UWAGA: części Litanii: 1. Introdukcia, 2. Kyrie, 3. Rosa mistica, 4. Regina angelorum, 5. Agnus Dei, 6. Christe audi nos
!!!AIN: 1 alto 1 bass 2 cor 1 organ 1 soprn 1 tenor 2 violn
!!!key: D
**kern	**fba	**dynam	**kern	**kern	**kern	**text	**kern	**text	**kern	**text	**kern	**text	**kern	**kern
*part9	*part9	*part9	*part8	*part7	*part6	*part6	*part5	*part5	*part4	*part4	*part3	*part3	*part2	*part1
*staff9	*	*	*staff8	*staff7	*staff6	*staff6	*staff5	*staff5	*staff4	*staff4	*staff3	*staff3	*staff2	*staff1
*IGcont	*	*	*	*	*IGcoro	*	*IGcoro	*	*IGcoro	*	*IGcoro	*	*	*
*ICklav	*	*	*ICstr	*ICstr	*ICvox	*	*ICvox	*	*ICvox	*	*ICvox	*	*ICbrass	*ICbrass
*Iorgan	*	*	*Ivioln	*Ivioln	*Ibass	*	*Itenor	*	*Ialto	*	*Isoprn	*	*Icor	*Icor
*I"Organo	*	*	*I"Violino 2do	*I"Violino Primo	*I"Baſso	*	*I"Tenore	*	*I"Alto	*	*I"Canto	*	*I"Cornu Secundo	*I"Cornu Primo
*I'org	*	*	*I'vl 2	*I'vl 1	*I'B	*	*I'T	*	*I'A	*	*I'S	*	*I'cor 2 in D	*I'cor 1 in D
*clefF4	*	*	*clefG2	*clefG2	*clefF4	*	*clefC4	*	*clefC3	*	*clefC1	*	*clefG2	*clefG2
*	*	*	*	*	*	*	*	*	*	*	*	*	*Trd-7c-10	*Trd-7c-10
*k[f#c#]	*	*	*k[f#c#]	*k[f#c#]	*k[f#c#]	*	*k[f#c#]	*	*k[f#c#]	*	*k[f#c#]	*	*k[f#c#]	*k[f#c#]
*D:	*	*	*D:	*D:	*D:	*	*D:	*	*D:	*	*D:	*	*D:	*D:
*M3/4	*	*	*M3/4	*M3/4	*M3/4	*	*M3/4	*	*M3/4	*	*M3/4	*	*M3/4	*M3/4
*2\right	*	*below	*2\right	*2\right	*2\right	*	*2\right	*	*2\right	*	*2\right	*	*2\right	*2\right
=1	=1	=1	=1	=1	=1	=1	=1	=1	=1	=1	=1	=1	=1	=1
!	!	!	!LO:TX:a:t=10	!LO:TX:a:t=Adagio:rj	!	!	!LO:TX:a:t=3	!	!LO:TX:a:t=1	!	!	!	!	!
!	!	!LO:DY:t=p.	!LO:TX:a:t=Adagio:rj	!LO:TX:a:t=10	!	!	!LO:TX:a:t=Adagio	!	!LO:TX:a:t=Adagio:rj	!	!	!	!LO:TX:a:t=Agnus Tacet	!LO:TX:a:t=Agnus Tacet
4D\	.	p	0.r	0.r	1.r	.	1.r	.	2.r	.	2aa\	A-	2.ryy	2.ryy
4DD/	.	.	.	.	.	.	.	.	.	.	.	.	.	.
4r	.	.	.	.	.	.	.	.	.	.	16gg\LL	-gnus	.	.
.	.	.	.	.	.	.	.	.	.	.	16ff#\	.	.	.
.	.	.	.	.	.	.	.	.	.	.	16ee\	.	.	.
.	.	.	.	.	.	.	.	.	.	.	16dd\JJ	.	.	.
=2	=2	=2	=2	=2	=2	=2	=2	=2	=2	=2	=2	=2	=2	=2
4AA/	.	.	.	.	.	.	.	.	2e\	A-	4gg\	De-	2.ryy	2.ryy
4A\	.	.	.	.	.	.	.	.	.	.	4gg\	-i	.	.
4r	.	.	.	.	.	.	.	.	16d\LL	-gnus	4gg\	qui	.	.
.	.	.	.	.	.	.	.	.	16c#\	.	.	.	.	.
.	.	.	.	.	.	.	.	.	16B\	.	.	.	.	.
.	.	.	.	.	.	.	.	.	16A\JJ	.	.	.	.	.
=3	=3	=3	=3	=3	=3	=3	=3	=3	=3	=3	=3	=3	=3	=3
2A\	.	.	.	.	2A\	A-	2.r	.	4c#\	De-	4ee\	tol-	2.ryy	2.ryy
.	.	.	.	.	.	.	.	.	4B\	-i	4dd\	-lis	.	.
16G\LL	.	.	.	.	16G\LL	-gnus	.	.	8c#\L	qui	8ee\L	pec-	.	.
16F#\	.	.	.	.	16F#\	De-	.	.	.	.	.	.	.	.
16E\	.	.	.	.	16E\	-i	.	.	8d\J	.	8ff#\J	.	.	.
16D\JJ	.	.	.	.	16D\JJ	qui	.	.	.	.	.	.	.	.
=4	=4	=4	=4	=4	=4	=4	=4	=4	=4	=4	=4	=4	=4	=4
4C#/	5 3	.	.	.	4C#/	tol-	2e\	A-	8.e\L	tol-	8.gg\L	-ca-	2.ryy	2.ryy
.	.	.	.	.	.	.	.	.	16c#\Jk	.	16ee\Jk	.	.	.
4C#/	.	.	.	.	4C#/	-lis	.	.	4A/	-lis	4cc#\	-ta	.	.
4r	.	.	.	.	4r	.	16d\LL	-gnus	4r	.	4r	.	.	.
.	.	.	.	.	.	.	16c#\	.	.	.	.	.	.	.
.	.	.	.	.	.	.	16B\	.	.	.	.	.	.	.
.	.	.	.	.	.	.	16A\JJ	.	.	.	.	.	.	.
=5	=5	=5	=5	=5	=5	=5	=5	=5	=5	=5	=5	=5	=5	=5
4C#/	5 3	.	0.r	0.r	4C#/	pec-	4e\	De-	4a\	pec-	4gg\	pec-	2.ryy	2.ryy
4C#/	.	.	.	.	4C#/	-ca-	4e\	-i	4a\	-ca-	4gg\	-ca-	.	.
4C#/	.	.	.	.	4C#/	-ta	4e\	qui	4a\	-ta	4gg\	-ta	.	.
=6	=6	=6	=6	=6	=6	=6	=6	=6	=6	=6	=6	=6	=6	=6
!	!	!	!	!	!	!	!	!	!	!	!LO:LB:g=original	!	!	!
4D/	x #	.	.	.	4D/	mun-	4d\	tol-	4a\	mu(n)-	4ff#\	mun-	2.ryy	2.ryy
4D/	.	.	.	.	4D/	-di	4d\	-lis	4a\	-di	4ff#\	-di	.	.
4r	.	.	.	.	4r	.	4r	.	4r	.	4r	.	.	.
*	*	*	*	*	*	*	*	*	*	*	*	*	*	*
=7	=7	=7	=7	=7	=7	=7	=7	=7	=7	=7	=7	=7	=7	=7
*clefC1	*	*	*	*	*	*	*	*	*	*	*	*	*	*
!	!	!	!	!	!LO:TX:a:t=2	!	!LO:TX:a:t=1	!	!LO:TX:a:t=1	!	!	!	!	!
2dd\	.	.	.	.	1.r	.	2.r	.	2.r	.	2dd\	Par-	2.ryy	2.ryy
4dd\	.	.	.	.	.	.	.	.	.	.	4dd\	-ce	.	.
=8	=8	=8	=8	=8	=8	=8	=8	=8	=8	=8	=8	=8	=8	=8
*^	*	*	*	*	*	*	*	*	*	*	*	*	*	*
*	*	*	*	*	*	*	*	*	*	*	*	*	*ij	*	*
2gg/	2b\ 2dd	.	.	.	.	.	.	2d\	Par-	2b\	Par-	2gg\	par-	2.ryy	2.ryy
4gg/	4b\ 4dd	.	.	.	.	.	.	4d\	-ce	4b\	-ce	4gg\	-ce	.	.
*v	*v	*	*	*	*	*	*	*	*	*	*	*	*	*	*
*	*	*	*	*	*	*	*	*	*	*	*	*	*	*
=9	=9	=9	=9	=9	=9	=9	=9	=9	=9	=9	=9	=9	=9	=9
*clefF4	*	*	*	*	*	*	*	*ij	*	*ij	*	*	*	*
2B\	6\ 3	.	1.r	1.r	2B\	Par-	2d\	par-	2e\	par-	2gg#X\	par-	2.ryy	2.ryy
4E\	.	.	.	.	4B\	-ce	4d\	-ce	4e\	-ce	4gg#\	-ce	.	.
*	*	*	*	*	*	*	*	*Xij	*	*Xij	*	*Xij	*	*
=10	=10	=10	=10	=10	=10	=10	=10	=10	=10	=10	=10	=10	=10	=10
!LO:LB:g=original	!	!	!	!	!	!	!	!	!	!	!	!	!	!
!LO:TX:t=P:problem=mixed beam	!	!	!	!	!LO:LB:g=original	!	!	!	!	!	!	!	!	!
8A\L	.	.	.	.	8A\	par-	8c#\	par-	8e\	par-	8aa\	par-	2.ryy	2.ryy
8C#\	.	.	.	.	8c#\	-ce	8c#\	-ce	8e\	-ce	8ee\	-ce	.	.
!	!	!	!	!	!	!	!LO:LB:g=original	!	!LO:LB:g=original	!	!	!	!	!
8D\	.	.	.	.	8d\	no-	8d\	no-	8dd\	no-	8ff#\	no-	.	.
8BB\	.	.	.	.	8B\	-bis	8d\	-bis	8b\	-bis	8dd\	-bis	.	.
8E\	.	.	.	.	8e\	Do-	8e\	Do-	8a\	Do-	8cc#\	Do-	.	.
8EE/J	.	.	.	.	8E/	-mi-	8e\	-mi-	8g#X\	-mi-	8b\	-mi-	.	.
=11	=11	=11	=11	=11	=11	=11	=11	=11	=11	=11	=11	=11	=11	=11
4AA/	.	.	4A/	16r	4A\	-ne	4c#\	-ne	4a\	-ne	4a\	-ne	2.ryy	2.ryy
.	.	.	.	16a/LL	.	.	.	.	.	.	.	.	.	.
.	.	.	.	16b/	.	.	.	.	.	.	.	.	.	.
.	.	.	.	16cc#/JJ	.	.	.	.	.	.	.	.	.	.
4r	.	.	4r	16dd\LL	4r	.	4r	.	4r	.	4r	.	.	.
.	.	.	.	16ee\	.	.	.	.	.	.	.	.	.	.
.	.	.	.	16ff#\	.	.	.	.	.	.	.	.	.	.
.	.	.	.	16gg#X\JJ	.	.	.	.	.	.	.	.	.	.
4r	.	.	4r	16aa\LL	4r	.	4r	.	4r	.	4r	.	.	.
.	.	.	.	16bb\	.	.	.	.	.	.	.	.	.	.
.	.	.	.	16ccc#\	.	.	.	.	.	.	.	.	.	.
.	.	.	.	16ddd\JJ	.	.	.	.	.	.	.	.	.	.
=12	=12	=12	=12	=12	=12	=12	=12	=12	=12	=12	=12	=12	=12	=12
!LO:TX:t=P:problem=mixed beam	!	!	!	!	!LO:TX:a:t=4	!	!LO:TX:a:t=13	!	!LO:TX:a:t=14	!	!LO:TX:a:t=9	!	!	!
8AA/L	.	.	8r	4.eee\	0.r	.	0.r	.	0.r	.	0.r	.	2.ryy	2.ryy
8A\	.	.	8e/L 8cc#	.	.	.	.	.	.	.	.	.	.	.
8A\	.	.	8e/ 8cc#	.	.	.	.	.	.	.	.	.	.	.
8A\	.	.	8e/ 8cc#	8ccc#\L	.	.	.	.	.	.	.	.	.	.
8G#X\	.	.	8e/ 8dd	8.bb\	.	.	.	.	.	.	.	.	.	.
8E\J	.	.	8e/J 8dd	.	.	.	.	.	.	.	.	.	.	.
.	.	.	.	16ddd\Jk	.	.	.	.	.	.	.	.	.	.
=13	=13	=13	=13	=13	=13	=13	=13	=13	=13	=13	=13	=13	=13	=13
!	!	!	!	!LO:TX:t=P:problem=mixed beam	!	!	!	!	!	!	!	!	!	!
4A\	.	.	4e/ 4cc#	16ccc#\LL	.	.	.	.	.	.	.	.	2.ryy	2.ryy
.	.	.	.	16a/	.	.	.	.	.	.	.	.	.	.
.	.	.	.	16b/	.	.	.	.	.	.	.	.	.	.
.	.	.	.	16cc#/JJ	.	.	.	.	.	.	.	.	.	.
4AA/	.	.	4r	16dd\LL	.	.	.	.	.	.	.	.	.	.
.	.	.	.	16ee\	.	.	.	.	.	.	.	.	.	.
.	.	.	.	16ff#\	.	.	.	.	.	.	.	.	.	.
.	.	.	.	16gg#X\JJ	.	.	.	.	.	.	.	.	.	.
4r	.	.	4r	16aa\LL	.	.	.	.	.	.	.	.	.	.
.	.	.	.	16bb\	.	.	.	.	.	.	.	.	.	.
.	.	.	.	16ccc#\	.	.	.	.	.	.	.	.	.	.
.	.	.	.	16ddd\JJ	.	.	.	.	.	.	.	.	.	.
=14	=14	=14	=14	=14	=14	=14	=14	=14	=14	=14	=14	=14	=14	=14
!LO:TX:t=P:problem=mixed beam	!	!	!	!LO:LB:g=original	!	!	!	!	!	!	!	!	!	!
8AA/L	.	.	8r	4.eee\	.	.	.	.	.	.	.	.	2.ryy	2.ryy
8A\	.	.	8e/L 8cc#	.	.	.	.	.	.	.	.	.	.	.
8A\	.	.	8e/ 8cc#	.	.	.	.	.	.	.	.	.	.	.
8A\	.	.	8e/ 8cc#	8ccc#\L	.	.	.	.	.	.	.	.	.	.
8G#X\	.	.	8e/ 8dd	8.bb\	.	.	.	.	.	.	.	.	.	.
8E\J	.	.	8e/J 8dd	.	.	.	.	.	.	.	.	.	.	.
.	.	.	.	16ccc#\Jk	.	.	.	.	.	.	.	.	.	.
=15	=15	=15	=15	=15	=15	=15	=15	=15	=15	=15	=15	=15	=15	=15
4A\	.	.	4e/ 4cc#	4aa\	.	.	.	.	.	.	.	.	2.ryy	2.ryy
4AA/	.	.	4e/ 4cc#	4a/	.	.	.	.	.	.	.	.	.	.
4r	.	.	4r	4r	.	.	.	.	.	.	.	.	.	.
=16	=16	=16	=16	=16	=16	=16	=16	=16	=16	=16	=16	=16	=16	=16
!	!	!	!LO:LB:g=original	!LO:TX:a:t=1	!LO:TX:a:t=Solo	!	!	!	!	!	!	!	!	!
8AA/	.	.	16c#/LL	2.r	16A\LL	A-	0.r	.	0.r	.	0.r	.	2.ryy	2.ryy
.	.	.	16e/	.	16G#X\	.	.	.	.	.	.	.	.	.
8r	.	.	16c#/	.	16A\	.	.	.	.	.	.	.	.	.
.	.	.	16e/JJ	.	16B\JJ	.	.	.	.	.	.	.	.	.
*	*	*	*rep	*	*	*	*	*	*	*	*	*	*	*
8A\	.	.	16c#/LL	.	16c#\LL	.	.	.	.	.	.	.	.	.
.	.	.	16e/	.	16B\	.	.	.	.	.	.	.	.	.
8r	.	.	16c#/	.	16c#\	.	.	.	.	.	.	.	.	.
.	.	.	16e/JJ	.	16d\JJ	.	.	.	.	.	.	.	.	.
*	*	*	*Xrep	*	*	*	*	*	*	*	*	*	*	*
8G#X\	.	.	16d/LL	.	16e\LL	.	.	.	.	.	.	.	.	.
.	.	.	16e/	.	16c#\JJ	.	.	.	.	.	.	.	.	.
8r	.	.	16d/	.	16d\LL	-gnus	.	.	.	.	.	.	.	.
.	.	.	16e/JJ	.	16B\JJ	.	.	.	.	.	.	.	.	.
=17	=17	=17	=17	=17	=17	=17	=17	=17	=17	=17	=17	=17	=17	=17
4A\	.	.	16c#/LL	4r	8A\L	De-	.	.	.	.	.	.	2.ryy	2.ryy
.	.	.	16e/	.	.	.	.	.	.	.	.	.	.	.
.	.	.	16c#/	.	16c#\L	.	.	.	.	.	.	.	.	.
.	.	.	16e/JJ	.	16A\JJ	.	.	.	.	.	.	.	.	.
4E\	.	.	4B/	16ee\LL	4E\	-i	.	.	.	.	.	.	.	.
.	.	.	.	16ff#\	.	.	.	.	.	.	.	.	.	.
.	.	.	.	16gg#X\	.	.	.	.	.	.	.	.	.	.
.	.	.	.	16aa\JJ	.	.	.	.	.	.	.	.	.	.
!	!	!	!	!	!LO:LB:g=original	!	!	!	!	!	!	!	!	!
4r	.	.	4r	16bb\LL	8r	.	.	.	.	.	.	.	.	.
.	.	.	.	16ccc#\	.	.	.	.	.	.	.	.	.	.
.	.	.	.	16ddd\	8G#X\	qui	.	.	.	.	.	.	.	.
.	.	.	.	16bb\JJ	.	.	.	.	.	.	.	.	.	.
=18	=18	=18	=18	=18	=18	=18	=18	=18	=18	=18	=18	=18	=18	=18
.	.	.	.	.	8qqB/	.	.	.	.	.	.	.	.	.
8AA/	.	.	16c#/LL	4aa\	16A\LL	tol-	.	.	.	.	.	.	2.ryy	2.ryy
.	.	.	16e/	.	16G#X\	.	.	.	.	.	.	.	.	.
8r	.	.	16c#/	.	16A\	.	.	.	.	.	.	.	.	.
.	.	.	16e/JJ	.	16B\JJ	.	.	.	.	.	.	.	.	.
.	.	.	.	.	8qqd/	.	.	.	.	.	.	.	.	.
*	*	*	*rep	*	*	*	*	*	*	*	*	*	*	*
8A\	.	.	16c#/LL	4r	16c#\LL	.	.	.	.	.	.	.	.	.
.	.	.	16e/	.	16B\	.	.	.	.	.	.	.	.	.
8r	.	.	16c#/	.	16c#\	.	.	.	.	.	.	.	.	.
.	.	.	16e/JJ	.	16d\JJ	.	.	.	.	.	.	.	.	.
*	*	*	*Xrep	*	*	*	*	*	*	*	*	*	*	*
8G#X\	.	.	16d/LL	4r	16e\LL	-lis	.	.	.	.	.	.	.	.
.	.	.	16e/	.	16c#\	.	.	.	.	.	.	.	.	.
8r	.	.	16d/	.	16d\	pec-	.	.	.	.	.	.	.	.
.	.	.	16e/JJ	.	16B\JJ	.	.	.	.	.	.	.	.	.
=19	=19	=19	=19	=19	=19	=19	=19	=19	=19	=19	=19	=19	=19	=19
!LO:LB:g=original	!	!	!	!	!	!	!	!	!	!	!	!	!	!
4A\	.	.	16c#/LL	4r	8A\L	-ca-	.	.	.	.	.	.	2.ryy	2.ryy
.	.	.	16e/	.	.	.	.	.	.	.	.	.	.	.
.	.	.	16c#/	.	16c#\L	.	.	.	.	.	.	.	.	.
.	.	.	16e/JJ	.	16A\JJ	.	.	.	.	.	.	.	.	.
4E\	.	.	4B/	16ee\LL	4E\	-ta	.	.	.	.	.	.	.	.
.	.	.	.	16ff#\	.	.	.	.	.	.	.	.	.	.
.	.	.	.	16gg#X\	.	.	.	.	.	.	.	.	.	.
.	.	.	.	16aa\JJ	.	.	.	.	.	.	.	.	.	.
4r	.	.	4r	16bb\LL	4r	.	.	.	.	.	.	.	.	.
.	.	.	.	16ccc#\	.	.	.	.	.	.	.	.	.	.
.	.	.	.	16ddd\	.	.	.	.	.	.	.	.	.	.
.	.	.	.	16bb\JJ	.	.	.	.	.	.	.	.	.	.
=20	=20	=20	=20	=20	=20	=20	=20	=20	=20	=20	=20	=20	=20	=20
!	!	!	!LO:TX:a:t=2	!	!	!	!	!	!	!	!	!	!	!
8C#/L	.	.	1.r	8aa\L	16C#\LL	pec-	0.r	.	0.r	.	2.r	.	2.ryy	2.ryy
.	.	.	.	.	16E\	.	.	.	.	.	.	.	.	.
8C#/	.	.	.	8aa\J	16A\	.	.	.	.	.	.	.	.	.
.	.	.	.	.	16c#\JJ	.	.	.	.	.	.	.	.	.
8D/	.	.	.	8.gg#X\L	8.B\L	-ca-	.	.	.	.	.	.	.	.
8D/	.	.	.	.	.	.	.	.	.	.	.	.	.	.
.	.	.	.	16aa\Jk	16c#\Jk	.	.	.	.	.	.	.	.	.
!	!	!	!	!LO:LB:g=original	!	!	!	!	!	!	!	!	!	!
8D/	.	.	.	16bb\LL	16d\LL	.	.	.	.	.	.	.	.	.
.	.	.	.	16gg#X\	16B\	.	.	.	.	.	.	.	.	.
8D#X/J	.	.	.	16aa\	16c#\	-ta	.	.	.	.	.	.	.	.
.	.	.	.	16cc#\JJ	16A\JJ	.	.	.	.	.	.	.	.	.
=21	=21	=21	=21	=21	=21	=21	=21	=21	=21	=21	=21	=21	=21	=21
!	!	!	!	!	!	!	!	!	!	!	!LO:LB:g=original	!	!	!
4E\	.	.	.	8a/L	8c#\L	mun-	.	.	.	.	4r	.	2.ryy	2.ryy
.	.	.	.	32b/LL	32d\LL	.	.	.	.	.	.	.	.	.
.	.	.	.	32a/	32c#\	.	.	.	.	.	.	.	.	.
.	.	.	.	32g#X/	32B\	.	.	.	.	.	.	.	.	.
.	.	.	.	32a/JJJ	32c#\JJJ	.	.	.	.	.	.	.	.	.
4EE/	.	.	.	4g#X/	4B\	-di	.	.	.	.	4r	.	.	.
4r	.	.	.	4r	4r	.	.	.	.	.	16ee\LL	ex-	.	.
.	.	.	.	.	.	.	.	.	.	.	16cc#\JJ	.	.	.
.	.	.	.	.	.	.	.	.	.	.	16dd\LL	-au-	.	.
.	.	.	.	.	.	.	.	.	.	.	16b\JJ	.	.	.
=22	=22	=22	=22	=22	=22	=22	=22	=22	=22	=22	=22	=22	=22	=22
!	!	!	!	!	!LO:LB:g=original	!	!	!	!	!	!	!	!	!
!	!	!	!	!	!LO:TX:a:t=3	!	!	!	!	!	!	!	!	!
4FF#/	.	.	8r	8r	1.r	.	.	.	.	.	2a#X\	-di	2.ryy	2.ryy
.	.	.	8e/L	8gn/L	.	.	.	.	.	.	.	.	.	.
4F#\	x 5	.	8d/	8f#/	.	.	.	.	.	.	.	.	.	.
.	.	.	8e/	8g/	.	.	.	.	.	.	.	.	.	.
4A#X\	.	.	8d/	8f#/	.	.	.	.	.	.	8b\L	nos	.	.
.	.	.	8c#/J	8e/J	.	.	.	.	.	.	8cc#\J	.	.	.
=23	=23	=23	=23	=23	=23	=23	=23	=23	=23	=23	=23	=23	=23	=23
4B\	x 3	.	8.B/L	8.d/L	.	.	.	.	.	.	16dd\LL	Do-	2.ryy	2.ryy
.	.	.	.	.	.	.	.	.	.	.	16cc#\JJ	.	.	.
.	.	.	.	.	.	.	.	.	.	.	16dd\LL	-mi-	.	.
.	.	.	16c#/Jk	16e/Jk	.	.	.	.	.	.	16ee\JJ	.	.	.
4BB/	.	.	4d/	4f#/	.	.	.	.	.	.	8.ff#\L	-ne	.	.
.	.	.	.	.	.	.	.	.	.	.	16ee\Jk	.	.	.
4r	.	.	4r	4r	.	.	.	.	.	.	16dd\LL	ex-	.	.
.	.	.	.	.	.	.	.	.	.	.	16b\JJ	.	.	.
.	.	.	.	.	.	.	.	.	.	.	16cc#\LL	-au-	.	.
.	.	.	.	.	.	.	.	.	.	.	16a\JJ	.	.	.
=24	=24	=24	=24	=24	=24	=24	=24	=24	=24	=24	=24	=24	=24	=24
!	!	!	!LO:LB:g=original	!	!	!	!	!	!	!	!	!	!	!
4EE/	.	.	8r	8r	2.r	.	2.r	.	1.r	.	2g#X\	-di	2.ryy	2.ryy
.	.	.	8d/L	8f#/L	.	.	.	.	.	.	.	.	.	.
4E\	x 5	.	8c#/	8e/	.	.	.	.	.	.	.	.	.	.
.	.	.	8d/	8f#/	.	.	.	.	.	.	.	.	.	.
4G#X\	.	.	8c#/	8e/	.	.	.	.	.	.	8a\L	nos	.	.
.	.	.	8B/J	8d/J	.	.	.	.	.	.	8b\J	.	.	.
=25	=25	=25	=25	=25	=25	=25	=25	=25	=25	=25	=25	=25	=25	=25
4A\	x 3	.	8.A/L	8.c#/L	4r	.	4r	.	.	.	16cc#\LL	Do-	2.ryy	2.ryy
.	.	.	.	.	.	.	.	.	.	.	16b\JJ	.	.	.
.	.	.	.	.	.	.	.	.	.	.	16cc#\LL	-mi-	.	.
.	.	.	16B/Jk	16d/Jk	.	.	.	.	.	.	16dd\JJ	.	.	.
!	!	!	!	!	!	!	!	!	!	!	!LO:LB:g=original	!	!	!
4AA/	.	.	4c#/	4e/	4r	.	4r	.	.	.	4ee\	-ne	.	.
4r	.	.	4r	4r	16F#\LL	do-	16c#\LL	Do-	.	.	16ee\LL	Do-	.	.
.	.	.	.	.	16E\	.	16B\JJ	.	.	.	16dd\JJ	.	.	.
.	.	.	.	.	16F#\	-mi-	16c#\LL	-mi-	.	.	16ee\LL	-mi-	.	.
.	.	.	.	.	16G\JJ	.	16d\JJ	.	.	.	16ff#X\JJ	.	.	.
=26	=26	=26	=26	=26	=26	=26	=26	=26	=26	=26	=26	=26	=26	=26
!LO:TX:a:t=1	!	!	!LO:TX:a:t=1	!LO:TX:a:t=1	!	!	!	!	!	!	!	!	!	!
2.r	.	.	2.r	2.r	4A\	-ne	4e\	-ne	4r	.	4ggn\	-ne	2.ryy	2.ryy
.	.	.	.	.	16F#\LL	Do-	16c#\LL	do-	8a\	Do-	16ee\LL	Do-	.	.
.	.	.	.	.	16E\	.	16B\JJ	.	.	.	16dd\JJ	.	.	.
.	.	.	.	.	16F#\	-mi-	16c#\LL	-mi-	8a\	-mi-	16ee\LL	-mi-	.	.
.	.	.	.	.	16G\JJ	.	16d\JJ	.	.	.	16ff#\JJ	.	.	.
.	.	.	.	.	4A\	-ne	4e\	-ne	4a\	-ne	4gg\	-ne	.	.
=27	=27	=27	=27	=27	=27	=27	=27	=27	=27	=27	=27	=27	=27	=27
*	*	*	*	*	*	*	*	*	*	*ij	*	*	*	*
!LO:TX:t=P:problem=mixed beam	!	!LO:DY:t=for	!	!	!	!	!	!	!	!	!	!	!	!
8AA/L	.	f	16cc#\LL	16ee\LL	16F#\LL	Do-	16c#\LL	Do-	8a\	Do-	16ee\LL	Do-	2.ryy	2.ryy
.	.	.	16b\	16dd\	16E\	.	16B\	.	.	.	16dd\JJ	.	.	.
8A\J	.	.	16cc#\	16ee\	16F#\	-mi-	16c#\	-mi-	8a\	-mi-	16ee\LL	-mi-	.	.
.	.	.	16dd\JJ	16ff#\JJ	16G\JJ	.	16d\JJ	.	.	.	16ff#\JJ	.	.	.
2A;;\	7 3	.	2ee;\	2gg;\	2A;\	-ne	2e;\	-ne	2a;;\	-ne	2gg;;\	-ne	.	.
*	*	*	*	*	*	*	*	*	*	*Xij	*	*	*	*
=28	=28	=28	=28	=28	=28	=28	=28	=28	=28	=28	=28	=28	=28	=28
!	!	!	!	!LO:LB:g=original	!	!	!LO:LB:g=original	!	!	!	!	!	!	!
!	!	!LO:DY:t=p.	!LO:TX:a:t=9	!LO:TX:a:t=9	!LO:TX:a:t=2	!	!LO:TX:a:t=3	!	!LO:TX:a:t=1	!	!	!	!	!
4D\	.	p	0.r	0.r	1.r	.	1.r	.	2.r	.	2aa\	A-	2.ryy	2.ryy
4DD/	.	.	.	.	.	.	.	.	.	.	.	.	.	.
4r	.	.	.	.	.	.	.	.	.	.	16gg\LL	-gnus	.	.
.	.	.	.	.	.	.	.	.	.	.	16ff#\	.	.	.
.	.	.	.	.	.	.	.	.	.	.	16ee\	.	.	.
.	.	.	.	.	.	.	.	.	.	.	16dd\JJ	.	.	.
=29	=29	=29	=29	=29	=29	=29	=29	=29	=29	=29	=29	=29	=29	=29
4AA/	.	.	.	.	.	.	.	.	2e\	A-	4gg\	De-	2.ryy	2.ryy
4A\	.	.	.	.	.	.	.	.	.	.	4gg\	-i	.	.
4r	.	.	.	.	.	.	.	.	16d\LL	-gnus	4gg\	qui	.	.
.	.	.	.	.	.	.	.	.	16c#\	.	.	.	.	.
.	.	.	.	.	.	.	.	.	16B\	.	.	.	.	.
.	.	.	.	.	.	.	.	.	16A\JJ	.	.	.	.	.
=30	=30	=30	=30	=30	=30	=30	=30	=30	=30	=30	=30	=30	=30	=30
!	!	!	!	!	!	!	!	!	!	!	!LO:LB:g=original	!	!	!
2A\	.	.	.	.	2A\	A-	2.r	.	4c#\	De-	4ee\	tol-	2.ryy	2.ryy
.	.	.	.	.	.	.	.	.	4B\	-i	4dd\	-lis	.	.
16G\LL	.	.	.	.	16G\LL	-gnus	.	.	8c#\L	qui	8ee\L	pec-	.	.
16F#\	.	.	.	.	16F#\	.	.	.	.	.	.	.	.	.
16E\	.	.	.	.	16E\	.	.	.	8d\J	.	8ff#\J	.	.	.
16D\JJ	.	.	.	.	16D\JJ	.	.	.	.	.	.	.	.	.
=31	=31	=31	=31	=31	=31	=31	=31	=31	=31	=31	=31	=31	=31	=31
!LO:LB:g=original	!	!	!	!	!	!	!	!	!	!	!	!	!	!
4C#/	5 3	.	.	.	4C#/	De-	2e\	A-	8.e\L	tol-	8.gg\L	-ca-	2.ryy	2.ryy
.	.	.	.	.	.	.	.	.	16c#\Jk	.	16eeJk	.	.	.
4C#/	.	.	.	.	4C#/	-i	.	.	4A/	-lis	4cc#\	-ta	.	.
4r	.	.	.	.	4r	.	16d\LL	-gnus	4r	.	4r	.	.	.
.	.	.	.	.	.	.	16c#\	.	.	.	.	.	.	.
.	.	.	.	.	.	.	16B\	.	.	.	.	.	.	.
.	.	.	.	.	.	.	16A\JJ	.	.	.	.	.	.	.
=32	=32	=32	=32	=32	=32	=32	=32	=32	=32	=32	=32	=32	=32	=32
4C#/	5 3	.	0.r	0.r	4C#/	pec-	4e\	De-	4a\	pec-	4gg\	Pec-	2.ryy	2.ryy
4C#/	.	.	.	.	4C#/	-ca-	4e\	-i	4a\	-ca-	4gg\	-ca-	.	.
4C#/	.	.	.	.	4C#/	-ta	4e\	qui	4a\	-ta	4gg\	-ta	.	.
=33	=33	=33	=33	=33	=33	=33	=33	=33	=33	=33	=33	=33	=33	=33
!	!	!	!	!	!LO:LB:g=original	!	!	!	!LO:LB:g=original	!	!	!	!	!
4D/	x #	.	.	.	4D/	mun-	4d\	tol-	4a\	mun-	4ff#\	mun-	2.ryy	2.ryy
4D/	.	.	.	.	4D/	-di	4d\	-lis	4a\	-di	4ff#\	-di	.	.
4r	.	.	.	.	4r	.	4r	.	4r	.	4r	.	.	.
*	*	*	*	*	*	*	*	*	*	*	*	*	*	*
=34	=34	=34	=34	=34	=34	=34	=34	=34	=34	=34	=34	=34	=34	=34
*clefC1	*	*	*	*	*	*	*	*	*	*	*	*	*	*
!	!	!	!	!	!LO:TX:a:t=2	!	!LO:TX:a:t=1	!	!LO:TX:a:t=1	!	!	!	!	!
2dd\	.	.	.	.	1.r	.	2.r	.	2.r	.	2dd\	Mi-	2.ryy	2.ryy
4dd\	.	.	.	.	.	.	.	.	.	.	4dd\	-se-	.	.
=35	=35	=35	=35	=35	=35	=35	=35	=35	=35	=35	=35	=35	=35	=35
*^	*	*	*	*	*	*	*	*	*	*	*	*	*	*
2gg/	2b\ 2dd	.	.	.	.	.	.	2d\	Mi-	2b\	Mi-	2gg\	-re-	2.ryy	2.ryy
4gg/	4b\ 4dd	.	.	.	.	.	.	4d\	-se-	4b\	-se-	4gg\	-re	.	.
*v	*v	*	*	*	*	*	*	*	*	*	*	*	*	*	*
*	*	*	*	*	*	*	*	*	*	*	*	*	*	*
=36	=36	=36	=36	=36	=36	=36	=36	=36	=36	=36	=36	=36	=36	=36
*clefF4	*	*	*	*	*	*	*	*	*	*	*	*	*	*
2B\	6\ 3	.	2.r	2.r	2B\	mi-	2d\	-re-	2e\	-re-	2gg#X\	Mi-	2.ryy	2.ryy
4E\	.	.	.	.	4B\	-se-	4d\	-re	4e\	-re	4gg#\	-se-	.	.
=37	=37	=37	=37	=37	=37	=37	=37	=37	=37	=37	=37	=37	=37	=37
!LO:TX:t=P:problem=mixed beam	!	!	!	!	!	!	!	!	!	!	!LO:LB:g=original	!	!	!
8AA/L	.	.	2a/	2cc#\	2AA/	-re-	2e\	Mi-	2a\	Mi-	2aa\	-re-	2.ryy	2.ryy
8A\J	.	.	.	.	.	.	.	.	.	.	.	.	.	.
*tremolo	*	*	*	*	*	*	*	*	*	*	*	*	*	*
8A\L	.	.	.	.	.	.	.	.	.	.	.	.	.	.
8A\	.	.	.	.	.	.	.	.	.	.	.	.	.	.
8A\	.	.	4g/	4ee\	4AA/	-re	4e\	-se-	4a\	-se-	4gg\	-re	.	.
8A\J	.	.	.	.	.	.	.	.	.	.	.	.	.	.
*Xtremolo	*	*	*	*	*	*	*	*	*	*	*	*	*	*
=38	=38	=38	=38	=38	=38	=38	=38	=38	=38	=38	=38	=38	=38	=38
!LO:TX:t=P:problem=mixed beam	!	!	!	!	!	!	!	!	!	!	!	!	!	!
8AA/L	.	.	2fn/	2dd\	2AA/	no-	2d\	-re-	2a\	-re-	2ffn\	Mi-	2.ryy	2.ryy
8A\J	.	.	.	.	.	.	.	.	.	.	.	.	.	.
*tremolo	*	*	*	*	*	*	*	*	*	*	*	*	*	*
8A\L	.	.	.	.	.	.	.	.	.	.	.	.	.	.
8A\	.	.	.	.	.	.	.	.	.	.	.	.	.	.
8A\	.	.	4e/	4cc#\	4AA/	.	4c#\	-re	4g\	-re	4ee\	-se-	.	.
8A\J	.	.	.	.	.	.	.	.	.	.	.	.	.	.
*Xtremolo	*	*	*	*	*	*	*	*	*	*	*	*	*	*
=39	=39	=39	=39	=39	=39	=39	=39	=39	=39	=39	=39	=39	=39	=39
!LO:TX:t=P:problem=mixed beam	!	!	!	!	!	!	!LO:LB:g=original	!	!	!	!	!	!	!
8AA/L	.	.	2d/	2fn/	2.AA/	-bis	2a\	Mi-	2fn\	Mi-	2dd\	-re-	2.ryy	2.ryy
8A\J	.	.	.	.	.	.	.	.	.	.	.	.	.	.
*tremolo	*	*	*	*	*	*	*	*	*	*	*	*	*	*
8A\L	.	.	.	.	.	.	.	.	.	.	.	.	.	.
8A\	.	.	.	.	.	.	.	.	.	.	.	.	.	.
8A\	.	.	4c#/	4e/	.	.	4gn\	-se-	4e\	-se-	4cc#\	-re	.	.
8A\J	.	.	.	.	.	.	.	.	.	.	.	.	.	.
*Xtremolo	*	*	*	*	*	*	*	*	*	*	*	*	*	*
=40	=40	=40	=40	=40	=40	=40	=40!|:	=40	=40	=40	=40	=40	=40	=40
!	!	!	!	!LO:SIC:v:s=2fn/	!	!	!	!	!	!	!	!	!	!
2A\	.	.	2d/	2f#/	2A\	mi-	2fn\	-re-	2a\	-re-	2dd\	Mi-	2.ryy	2.ryy
4G\	.	.	4c#/	4e/	4G\	-se-	4c#\	-re	4a\	-re	4cc#\	-se-	.	.
=41	=41	=41	=41	=41	=41	=41	=41:|!	=41	=41	=41	=41	=41	=41	=41
!	!	!	!	!	!	!	!LO:TX:t=P:problem=takt zapisany repetycją	!	!	!	!	!	!	!
!	!	!	!	!LO:SIC:v:s=2fn/	!LO:SIC:v:s=2Fn\	!	!	!LO:MO:mod=Mi-	!	!	!	!	!	!
2Fn\	.	.	2d/	2f#/	2F#\	-re-	2fn\yy	re-	2a\	Mi-	2dd\	-re-	2.ryy	2.ryy
!	!	!	!	!	!	!	!	!LO:MO:mod=-se-	!	!	!	!	!	!
4E\	.	.	4g/	4ee\	4E\	-re	4c#\yy	-re	4a\	-se-	4gg\	-re	.	.
=42	=42	=42	=42	=42	=42	=42	=42	=42	=42	=42	=42	=42	=42	=42
!	!	!	!	!	!	!	!	!LO:MO:mod=-re-	!	!	!	!	!	!
8D\L	.	.	4fn/	4dd\	8D\	mi-	4d\	Mi-	4a\	-re-	4ff#\	Mi-	2.ryy	2.ryy
8E\	.	.	.	.	8E\	-se-	.	.	.	.	.	.	.	.
!	!	!	!	!	!LO:SIC:v:s=8Fn\	!	!	!LO:MO:mod=-re	!	!	!	!	!	!
8Fn\	.	.	4f/	4dd\	8F#\	-re-	4d\	-se	4a\	-re	4ff#\	-se-	.	.
8G\	.	.	.	.	8G\	-re	.	.	.	.	.	.	.	.
8A\	.	.	4f/	4dd\	8A\	no-	4d\	[[re]]no-	8a\L	no-	4ff#\	-re-	.	.
8B-X\J	.	.	.	.	8B-X\	.	.	.	8g#X\J	.	.	.	.	.
=43	=43	=43	=43	=43	=43	=43	=43	=43	=43	=43	=43	=43	=43	=43
!	!	!	!LO:LB:g=original	!	!LO:LB:g=original	!	!	!	!	!	!	!	!	!
2A\	.	.	2e/	2cc#\	2.A\	-bis	2c#\	-bis	2a\	-bis	2ee\	-re	2.ryy	2.ryy
4r	.	.	4r	4r	.	.	4r	.	4r	.	4r	.	.	.
=44	=44	=44	=44	=44	=44	=44	=44	=44	=44	=44	=44	=44	=44	=44
2.BB-yX;;\ 2.B-X	6 3	.	2.g#X;/	2.dd;\	2.B-X;\	no-	2.d;\	no-	2.g#X;\	No-	2.ff#;\	no-	2.ryy	2.ryy
=45	=45	=45	=45	=45	=45	=45	=45	=45	=45	=45	=45	=45	=45	=45
2.AA;;\ 2.A	.	.	2.a;/	2.e;\ 2.cc#	2.A;\	-bis	2.c#;\	-bis	2.a;\	-bis	2.ee;\	-bis	2.ryy	2.ryy
!	!	!	!	!	!	!	!	!	!	!	!LO:TX:b:t=Christe audinos Verte Citiſsimo	!	!	!
==	==	==	==	==	==	==	==	==	==	==	==	==	==	==
*-	*-	*-	*-	*-	*-	*-	*-	*-	*-	*-	*-	*-	*-	*-
!!!system-decoration: [(s1,s2)][(s3,s4,s5,s6)][(s7,s8)]s9
!!!ENC: Andrzej Gręziak
!!!END: 2021-11-15
!!!ENC: Krzysztof Stępień
!!!END: 2021-11-25
!!!YEC: Copyright 2022 Narodowy Instytut Fryderyka Chopina (https://polishscores.org)
!!!YEM: License CC-BY-4.0 (https://creativecommons.org/licenses/by/4.0)
